X:034
T:Bonny Charley TS.034
T:King of the Fairies,aka TS.034
T:King William of Orange,aka TS.034
M:C|
L:1/8
Q:1/2=70
S:Thomas Sands’ MS,1810,Lincolnshire
C:Prefixed as ‘No.22′ in MS
R:country dance
O:England;Lincolnshire
Z:vmp.Ruairidh Greig, 2011
K:Em
E2(EF)G2(GA)|BcBAG2(Ac)|B2E2E2G2|FGAFD2D2|
E2EFG2GA|BcBAG2Ac|B2E2GFED|E2e2E4:|
|:efedB2B2|efedB4|fgafd2d2|fgafd2(ga)|
b2(gb)a2(fa)|g2egf2df|e2(de) gfed|e2f2Hg4|
fedcB2B2|g2b2B4|dcBA cBAG|FGAFD4|
GFGA BABd|edef gfed|dcBA BAGF|E2e2E4:|]

